X: 30184
T: Old Favourite, The
R: jig
M: 6/8
K: Gmajor
B2 B B2 B|dcA B2 c|d2 e d2 e|ded cBA|
B2 B B2 B|dcA B2 c|ded dBG|A3 G3|
|:g2 g g2 g|f2 e e2 e|d2 d dge|dcB A3:|

